_includes/icons/ios-check.svg

<svg fill="#666" height="50" viewBox="0 0 50 50" width="50" xmlns="http://www.w3.org/2000/svg"><path d="m42.875 8.625c-.03125.007813-.0625.019531-.09375.03125-.261719.066406-.488281.234375-.625.46875l-20.4375 31.6875-14.0625-12.6875c-.246094-.3125-.65625-.449219-1.042969-.347656-.386718.101562-.671875.425781-.730468.820312-.058594.394532.121093.785157.460937.996094l14.90625 13.5c.21875.191406.511719.277344.800781.234375.289063-.042969.542969-.207031.699219-.453125l21.09375-32.6875c.230469-.328125.242188-.761719.03125-1.101562-.210937-.339844-.605469-.519532-1-.460938z"/></svg>

<svg xmlns="http://www.w3.org/2000/svg" viewBox="0 0 50 50" width="50" height="50" fill="#666"><path d="M 42.875 8.625 C 42.84375 8.632813 42.8125 8.644531 42.78125 8.65625 C 42.519531 8.722656 42.292969 8.890625 42.15625 9.125 L 21.71875 40.8125 L 7.65625 28.125 C 7.410156 27.8125 7 27.675781 6.613281 27.777344 C 6.226563 27.878906 5.941406 28.203125 5.882813 28.597656 C 5.824219 28.992188 6.003906 29.382813 6.34375 29.59375 L 21.25 43.09375 C 21.46875 43.285156 21.761719 43.371094 22.050781 43.328125 C 22.339844 43.285156 22.59375 43.121094 22.75 42.875 L 43.84375 10.1875 C 44.074219 9.859375 44.085938 9.425781 43.875 9.085938 C 43.664063 8.746094 43.269531 8.566406 42.875 8.625 Z"/></svg>
